-----BEGIN PGP PUBLIC KEY BLOCK-----

mQINBGpJU6oBEAD1O+BOnSTD1pLDCFOsmQfSnuKMIYdXKoMZkZwctT1xHE/yGNHw
cZmMDzlwjKr2SzXrdwsNXnmQt2mVJjF/WlViT/uAwdrzghwBa37NQI9R9WRQFUjV
hxUaNCUWknmh1OG26ATdNKT2t1E4tWihEYV5SBovh8uTGPdVRSM5Odiw7G550lrE
lVpbm9jbNVNXbpXgJa2PoyZsFUGluy9Bd5wZYBTuqZphgd27SVYqJ9Lnb9C9lHKm
/6cl2uQGc2adP8HRTAIfM+aPbi7DnKhSrUVJgZ5DD0ZKLtj5kvLpmuWjK3JbJSXR
DmRtFJvvYJVSHhuHCbIywupmNo9WlUTQrdmQQ8wpLtbNDEPjjltinJb2L5cfSSIb
6UoeCl9pdlLdoB6FWnUIOozwjyCRrYjViS/pqG7zU74ghKm5EPOyqaJDlmHJie0l
DlaZ4rTqfp9alIa3tyU2Ww3J+TBn+zf+XAunHMgy5JFKOCCGbt1wmX3VNemB7Ane
VjIALlZjHS5HolppNsugNb6HA86T6meoc7233QKw86Ju+VgTh8fwBj5/qATOVTgY
yuHemm6lL+jv66y1h8uHfhw3pmYBGBizAMuoPwIREkZ5XnxM0s+E0d2ZbXMWbqVf
MXcCEZrmOULcpGgfisBzwTTe6uxIgukSb/hW1tKi/3gtQV1f7QXfZizcewARAQAB
tDJjbWdwZyAoU29uYVR5cGUgR1BHKSA8Y2hyaXN0b3BoZXIubWlpcm9AZ2FtaWwu
Y29tPokCUQQTAQoAOxYhBHW/cEckSdDoYAaOLCDeATsEqV36BQJqSVOqAhsDBQsJ
CAcCAiICBhUKCQgLAgQWAgMBAh4HAheAAAoJECDeATsEqV36UTUP/0VvSDyAwsYA
GBu/4G0Tk4pReApT6AKLVyOxG/yl0geps0QCL7nvXKq1S06kidjktKQnkDoKGLMI
0OKTvlvsT8XbNbFaIv+l8vuPlo+HYBns4sGN+U7Gt7jrsb5nT+RGECkXo29k820N
+ZH85Rfgmhr2mPK8VInkK+lJ0AWGHWfGeuLlIPXhPTWEpRb4WTSwmd5kfhS4Nz+7
yOJNv/WCq8BBl8bJJK6naiFA3GPiERoMjk35A7ZLDQ22DIZj0JKVobweKtCBBmqC
cmBNQauB48u7ttih/iiKeeKfPliAP18Iq5CS/ONVqWmygXwZyIy9CfPiUN+qtzkm
SZLArJ86H9ow8EvUdEmm3MSk1oTwZWGz6UnilYpyDMjGsg6GT9eWnsSIBVRT8la7
bBQmyzaO+D7RJzl7MzqGEePDZMOS4QZNAeTneUH+zS7M2nM+jBcKeLUsHZGxegbx
xdSNW5V4eh+4GpGyljSehuSe4XVQtFmqoxZ1EuG0TqR/lI4Bbbgkep2QhLfvkwqM
0JrVrNuGDZRKT7QCX47g4VqYbSVWYJbDQsq6p7MH3gClXnrfS7tSs2laBUjrNc3f
F7tVQh07yPaKPUwBl9ty4iV+obEwuYRAfN3Zh3FZnvuw4+BVXdkDaJrzG13vUnqi
CPjdJtsorijmGUGjfS/4p4FZER3qdQMJuQINBGpJU6oBEADGqcEqSm00hxNqZEhd
kTAEo+ySAJtbB1bXQktWRjUDJnAtyhuiGjXw6lNgvesaG/6mnvW6aDEmyMASAGRF
Mq4O4CGBm6w91EZthtf/guXgx9mS7S2ElEMZiRxE0zl7qK2kk7ff+8xkPFH4unJW
Wub4Ki3fQHxApC1iD0h8P8hYkwtZqTbMtmxceWys8xT7ImI2e2lRbu9q63Q2OM2j
ROvgTB5TUuvVd0NDOEHOo/S+DGGOClBSYf5+4IN1jCOywIUH+2iqPd4NeTm/OxaN
pjg+gpJDT6NP9XqObd3oLmD3lDRVJ/kptkq/5FLlN3XmDA3Bf+m2daUnEqVouupl
uLizsbZxpmz7uMWGyvgBkmIFGNU8senn2b21ZLw43lvY28c1wcEsm9TpkL0zLQk4
mcRt7UR7K6uRvz6/gQ8QgoDbBvHE9E2deSt8W2SRS6bNB9ONWIJ76Kiv1PqEzhUy
4OntP3b7hTIAkBmC4APkVLt/msDZ7UZOhWDjgqyoHGWJnA5YAbv2ly/ZR/E4JcbZ
s+u20xC/cZVihRtFwvwqa+PxuI3yVZTW3Qef1oi0e458W3icz0ht53GerI/jqkjC
AWo3/2dszWAsrwSInZqRh27xby9LQydhtlRaOOiEKfzyBsgdZIjOQNKIrPCZD9Q7
P1+7cuIp2fzyhhfCruMohHdm/QARAQABiQI2BBgBCgAgFiEEdb9wRyRJ0OhgBo4s
IN4BOwSpXfoFAmpJU6oCGwwACgkQIN4BOwSpXfrevQ//dkhxyvt/r9yaLTRjwGRb
yqXGzqq7hI8AM8ftnHheGd9lO+g8O4g8iwbbNMayhQuAfKIuE4LGH75iBl8ewwpX
MYvQV87zc9cBJYZmL26DCQwGlq8u+n3SVijqWlp3FioASVr/0SBDwo/4DOb32toA
kH9E165dccf0gnahfuyHKwbJbhNfwarfqjI/Ao2i0ZPzjc8o5MtViMtJGZYjuEJD
ylKo+F6DF6vXKH64KkNh/43sAGFPp6DmDadoDTzTHlphTlCTq+jI4uEYzwuZug3k
gCT73f9nIavRXhCucxbj7Hgf2icGjfrSUMmu2RW2BV4ZzyKNIHzaiOKzLUD/oTn2
HLkVYkP5xsdZkAwaX8z9aZRrpWB7WOv9MEvbvjGA2zaiPHie9B01dWBTpgwm7oFy
aZUR/zH/AgCLnP6NtFuIuVrZtmK/qspHlME/fYNg3U2msBi5MiptbprLlMHnT7ST
3QfRbwlT1SqRiNSrrfnG47yJSXH/olmgF30O8MPrdi3tSVCMcC8iaqxSDGk/Q6er
9Gp8zJxyzIcde8ulCVU03qi6WayiaxXEwcFJ8eLd9teSi+kCB/QI9Jl2nkgQ4JDW
4fGIRPJ+81V/Fq06/PVsIDWWuCumMPiL4hb220oOH6X5QZ6chUJJWiFuFIZlxXiM
GpVAj82hNt+B1UlK3ROarMA=
=GUVs
-----END PGP PUBLIC KEY BLOCK-----
